img/nutritionally.svg

<svg width="64" height="54" viewBox="0 0 64 54" fill="none" xmlns="http://www.w3.org/2000/svg">
<path d="M49.9372 8.44973C43.9103 8.44973 36.1614 12.7547 36.4484 21.6515C36.4484 21.6515 24.6816 17.9206 21.2377 30.2614C21.2377 30.2614 19.2287 25.9565 16.6457 23.9475C13.7758 21.9385 10.3318 16.7726 10.0448 14.1896C10.3318 12.7547 10.6188 12.7547 11.1928 12.4677C11.4798 12.4677 11.4798 14.7636 14.0628 15.0506C16.3587 14.7636 16.9327 14.1896 17.7937 13.0417L20.3767 10.1717C20.3767 10.1717 22.9596 6.72776 20.6637 5.00578C18.6547 2.99681 14.9238 -0.734128 10.3318 0.126858C7.74888 0.700849 5.73991 2.70982 5.73991 2.70982L2.29596 5.86677C2.29596 5.86677 0 8.16273 0 12.7547C0 16.7726 0.860987 23.3735 0.860987 23.3735C0.860987 23.3735 1.72197 28.5394 2.00897 30.2614C2.29596 31.9834 4.59193 42.0282 10.0448 47.4811C13.4888 51.4991 15.4978 53.221 17.2197 53.508C20.0897 53.508 21.5247 51.7861 23.8206 51.7861C26.1166 51.7861 28.4126 53.508 33.2915 53.508C38.1704 53.508 49.0762 50.6381 53.6682 36.5753C57.9731 34.8533 64 31.6964 64 22.2255C64 12.7547 55.6771 8.44973 49.9372 8.44973ZM51.9462 34.8533C48.7892 47.4811 38.7444 50.9251 33.8655 51.4991C29.2735 51.4991 26.6906 49.7771 23.2466 49.7771C21.2377 49.7771 18.3677 51.4991 17.5067 51.4991C16.6457 51.4991 14.3498 49.4901 11.4798 46.3331C8.60987 43.1762 7.46188 40.3062 6.3139 38.0103C5.16592 35.7143 3.15695 26.5304 3.15695 26.5304C3.15695 26.5304 2.29596 17.3466 2.29596 13.3287C2.29596 9.59771 4.01794 7.30175 4.01794 7.30175C4.01794 7.30175 6.3139 5.29278 8.60987 3.28381C11.1928 1.27484 14.3498 2.70982 14.3498 2.70982C14.3498 2.70982 17.5067 4.71879 18.6547 5.86677C20.0897 7.01475 18.6547 8.16273 18.6547 8.16273C18.6547 8.16273 15.4978 12.1807 14.3498 12.4677C12.9148 12.7547 12.6278 9.31072 12.6278 9.31072C11.1928 9.88471 8.89686 10.4587 8.03587 13.0417C7.17489 16.1986 11.7668 22.7995 15.2108 25.9565C18.3677 29.1134 20.3767 34.2793 20.3767 34.2793L22.9596 33.4183C22.9596 33.4183 22.6726 27.3914 27.8386 24.2345C33.5785 21.0775 38.7444 25.3825 38.7444 25.3825C37.0224 11.0327 49.6502 10.7457 50.5112 10.7457C51.3722 10.7457 61.417 11.6067 62.278 21.6515C61.704 33.1313 51.9462 34.8533 51.9462 34.8533Z" fill="#292929"/>
</svg>

<svg width="64" height="54" fill="none" xmlns="http://www.w3.org/2000/svg"><path d="M49.937 8.45c-6.027 0-13.776 4.305-13.489 13.201 0 0-11.766-3.73-15.21 8.61 0 0-2.01-4.305-4.592-6.313-2.87-2.01-6.314-7.175-6.601-9.758.287-1.435.574-1.435 1.148-1.722.287 0 .287 2.296 2.87 2.583 2.296-.287 2.87-.861 3.73-2.01l2.584-2.87s2.583-3.443.287-5.165c-2.01-2.01-5.74-5.74-10.332-4.88C7.749.702 5.74 2.71 5.74 2.71L2.296 5.867S0 8.163 0 12.755c0 4.018.861 10.618.861 10.618l1.148 6.888c.287 1.722 2.583 11.767 8.036 17.22 3.444 4.018 5.453 5.74 7.175 6.027 2.87 0 4.305-1.722 6.6-1.722 2.297 0 4.593 1.722 9.471 1.722 4.88 0 15.785-2.87 20.377-16.933C57.973 34.853 64 31.696 64 22.225c0-9.47-8.323-13.775-14.063-13.775zm2.01 26.403C48.788 47.481 38.743 50.925 33.864 51.5c-4.592 0-7.174-1.722-10.618-1.722-2.01 0-4.88 1.722-5.74 1.722-.861 0-3.157-2.009-6.027-5.166-2.87-3.157-4.018-6.027-5.166-8.323-1.148-2.296-3.157-11.48-3.157-11.48s-.861-9.183-.861-13.201c0-3.731 1.722-6.027 1.722-6.027L8.61 3.284c2.583-2.01 5.74-.574 5.74-.574s3.157 2.009 4.305 3.157c1.435 1.148 0 2.296 0 2.296s-3.157 4.018-4.305 4.305c-1.435.287-1.722-3.157-1.722-3.157-1.435.574-3.731 1.148-4.592 3.73-.861 3.158 3.73 9.758 7.175 12.915 3.157 3.157 5.166 8.323 5.166 8.323l2.583-.86s-.287-6.028 4.879-9.184c5.74-3.157 10.905 1.148 10.905 1.148-1.722-14.35 10.906-14.637 11.767-14.637.861 0 10.906.86 11.767 10.905-.574 11.48-10.332 13.202-10.332 13.202z" fill="#292929"/></svg>
